X:504
%%etbk:tnset id:220,pos:2,rep:3x,ant:
%%etbk:pldat 2015-12-28T17:39,2015-12-24T16:30,2014-12-26T16:19,2014-12-16T17:15,2014-12-14T15:30,2014-11-24T17:02,2014-10-03T16:16,2014-05-19T18:48,2014-05-02T16:55,2014-04-30T17:00,2014-04-26T16:55,2014-03-20T18:08,2014-03-14T18:46,2014-02-15T15:48,2014-02-12T18:16,2014-02-08T15:43,2014-01-03T16:43,2013-12-29T12:09,2013-12-28T14:16,2013-12-22T17:19,2013-12-17T17:03,2013-12-07T17:34,2013-12-04T18:44,2013-11-26T16:32,2013-11-24T15:53,2013-11-16T15:10,2013-11-06T17:27,2013-11-03T15:29,2013-10-26T17:29,2013-10-20T15:36,2013-10-09T17:18,2013-10-02T18:29,2013-10-01T18:23,2013-09-29T15:01,2013-09-26T16:23
T:Christmas Eve
H: Created 2013-09-27 /  Last Modified 2013-10-01
R:reel
C:Tommy Coen
M:4/4
K:Gmaj
|:"G"!1!D2DE !3!G2G!4!A | !3!B2dB !2!ABGA | !3!BA!1!G!2!E !1!DEDE | !3!G2BG "D"!4!A2GE|
"G"!1!D2DE !3!G2G!4!A | !3!B2dB !2!ABGA | !3!B!2!AAA !1!G2BG|1 "D"!2!AB!1!G!2!E "G"!3!GGG!2!E:|2 "D"!2!AB!1!G!2!E "G"!1!GGGA||
|:"G"!3!BAB!4!d !2!edeg | !5!a2ge !4!g2ge | !5!a2ge !4!ggge | !1!ded!3!B "D"!2!A2GA|
"G"!3!BAB!4!d !2!edeg | !5!a2ge !4!g3e | !5!a2ge !1!d!3!B!1!G!3!B|1 "D"!2!AB!1!G!2!E "G"!1!GGGA:|2 "D"ABGE "G"G2!5!dc||
|:"G"!3!B!2!GGG !1!D!2!G!3!B!4!d | !2!e!4!ggg !2!eg!1!d!3!c | !2!B!1!GGG !5!dG!3!BG | "D"!1!E!3!AAA EAcA|
"G"!4!B!2!GGG !1!D!2!G!3!B!4!d | !2!e!4!ggg !2!e!4!g!1!d!4!g | !5!b2ag !2!e!1!d!3!B!1!G|1 "D"!2!AB!1!G!2!E "G"!1!G2!5!dc:|2 "D"!2!AB!1!G!2!E "G"!1!G2!2!G!2!E||


